image/aed.svg

<?xml version="1.0" encoding="UTF-8"?>
<svg version="1.1" viewBox="0 0 184 184" xmlns="http://www.w3.org/2000/svg">
	<path d="m0 0v184h184v-184z" style="fill:#008855"/>
	<g style="fill:#fff">
		<path d="m137 16.1h14.8v14.9h14.9v14.8h-14.9v14.9h-14.8v-14.9h-14.9v-14.8h14.9z"/>
		<path d="m47.5 56.3c-19.2 0.2-36.4 19.3-31.2 44.5 3.9 19.3 24.4 44.3 60.1 68.5 35.7-24.3 56.2-49.3 60.1-68.5 5.2-25.3-11.9-44.3-31.2-44.5-9.9-0.2-22.3 5.1-28.9 17.7-6.6-12.6-19-17.9-28.9-17.7zm44.3 15.3-16.8 34.5h21.3l-37.3 43.4 14.4-34h-20.7l39.1-43.9z"/>
	</g>
</svg>

<?xml version="1.0" encoding="UTF-8" standalone="no"?>
<svg
   xmlns:dc="http://purl.org/dc/elements/1.1/"
   xmlns:cc="http://creativecommons.org/ns#"
   xmlns:rdf="http://www.w3.org/1999/02/22-rdf-syntax-ns#"
   xmlns:svg="http://www.w3.org/2000/svg"
   xmlns="http://www.w3.org/2000/svg"
   xmlns:sodipodi="http://sodipodi.sourceforge.net/DTD/sodipodi-0.dtd"
   xmlns:inkscape="http://www.inkscape.org/namespaces/inkscape"
   inkscape:version="1.0 (4035a4fb49, 2020-05-01)"
   sodipodi:docname="aed.svg"
   id="svg10"
   viewBox="0 0 184 184"
   version="1.1">
  <metadata
     id="metadata16">
    <rdf:RDF>
      <cc:Work
         rdf:about="">
        <dc:format>image/svg+xml</dc:format>
        <dc:type
           rdf:resource="http://purl.org/dc/dcmitype/StillImage" />
      </cc:Work>
    </rdf:RDF>
  </metadata>
  <defs
     id="defs14" />
  <sodipodi:namedview
     inkscape:current-layer="svg10"
     inkscape:window-maximized="1"
     inkscape:window-y="-8"
     inkscape:window-x="-8"
     inkscape:cy="121.4395"
     inkscape:cx="43.843513"
     inkscape:zoom="4.7173913"
     showgrid="false"
     id="namedview12"
     inkscape:window-height="1017"
     inkscape:window-width="1920"
     inkscape:pageshadow="2"
     inkscape:pageopacity="0"
     guidetolerance="10"
     gridtolerance="10"
     objecttolerance="10"
     borderopacity="1"
     bordercolor="#666666"
     pagecolor="#ffffff" />
  <rect
     ry="11.235932"
     y="0.034258462"
     x="0.052995484"
     height="183.96574"
     width="183.95877"
     id="rect847"
     style="fill:#ffffff;fill-rule:evenodd;stroke-width:14.7696;stroke-linecap:round;stroke-linejoin:round;paint-order:stroke markers fill" />
  <rect
     style="opacity:0.993;fill:#ef9235;fill-opacity:1;fill-rule:evenodd;stroke-width:13.3811;stroke-linecap:round;stroke-linejoin:round;paint-order:stroke markers fill"
     id="rect847-5"
     width="166.89479"
     height="166.44142"
     x="9.5661793"
     y="8.3716736"
     ry="10.165613" />
  <g
     transform="matrix(0.91875959,0,0,0.92804803,9.7271078,7.5178736)"
     id="g8"
     style="fill:#ffffff">
    <path
       id="path4"
       d="m 137,16.1 h 14.8 V 31 h 14.9 V 45.8 H 151.8 V 60.7 H 137 V 45.8 H 122.1 V 31 H 137 Z" />
    <path
       id="path6"
       d="m 47.5,56.3 c -19.2,0.2 -36.4,19.3 -31.2,44.5 3.9,19.3 24.4,44.3 60.1,68.5 C 112.1,145 132.6,120 136.5,100.8 141.7,75.5 124.6,56.5 105.3,56.3 95.4,56.1 83,61.4 76.4,74 69.8,61.4 57.4,56.1 47.5,56.3 Z M 91.8,71.6 75,106.1 H 96.3 L 59,149.5 73.4,115.5 H 52.7 Z" />
  </g>
</svg>
